X: 1
T:Top of Cork Road
T:Father O'Flynn
R:Jig
S:Old O'Neill's
M:6/8
L:1/8
K:D
dAF DFA|Bed cBA|~d3 efg|fdf ecA|!
dAF DFA|Bed cBA|~d3 efg|1 fdd ~d3:|2 fdd d2g !
|:fdf fga|ecA ABc|~d3 fed|cAA A2c|!
~B3 Bcd|AFD DFA|~d3 efg|1 fdd d2g:|2 fdd ~d3||!
